; generated by PrusaSlicer 2.9.6-beta1+0-legacy on 2026-06-08 at 12:15:42 UTC
; prepared by EasyPrint v8.4.2

; 

; external perimeters extrusion width = 0.42mm
; perimeters extrusion width = 0.45mm
; infill extrusion width = 0.45mm
; solid infill extrusion width = 0.42mm
; top infill extrusion width = 0.42mm
; first layer extrusion width = 0.50mm


M486 S0
M486 A3dbenchy
M486 S-1

;TYPE:Custom
;===== machine: P1S ========================
;===== date: 20231107 =====================
;===== turn on the HB fan & MC board fan =================
M104 S75 ;set extruder temp to turn on the HB fan and prevent filament oozing from nozzle
M710 A1 S255 ;turn on MC fan by default(P1S)
;===== reset machine status =================
M290 X40 Y40 Z2.6666666
G91
M17 Z0.4 ; lower the z-motor current
G380 S2 Z30 F300 ; G380 is same as G38; lower the hotbed , to prevent the nozzle is below the hotbed
G380 S2 Z-25 F300 ;
G1 Z5 F300;
G90
M17 X1.2 Y1.2 Z0.75 ; reset motor current to default
M960 S5 P1 ; turn on logo lamp
G90
M220 S100 ;Reset Feedrate
M221 S100 ;Reset Flowrate
M73.2   R1.0 ;Reset left time magnitude
M1002 set_gcode_claim_speed_level : 5
M221 X0 Y0 Z0 ; turn off soft endstop to prevent protential logic problem
G29.1 Z0 ; clear z-trim value first
M204 S10000 ; init ACC set to 10m/s^2

;===== heatbed preheat ====================
M1002 gcode_claim_action : 2
M140 S55 ;set bed temp
M190 S55 ;wait for bed temp



;=============turn on fans to prevent PLA jamming=================

    
    M106 P3 S180
    ;Prevent PLA from jamming

M106 P2 S100 ; turn on big fan ,to cool down toolhead

;===== prepare print temperature and material ==========
M104 S220 ;set extruder temp
G91
G0 Z10 F1200
G90
G28 X
M975 S1 ; turn on
G1 X60 F12000
G1 Y245
G1 Y265 F3000
M620 M
M620 S0A   ; switch material if AMS exist
    M109 S220
    G1 X120 F12000

    G1 X20 Y50 F12000
    G1 Y-3
    T0
    G1 X54 F12000
    G1 Y265
    M400
M621 S0A
M620.1 E F299.339 T220


M412 S1 ; ===turn on filament runout detection===

M109 S250 ;set nozzle to common flush temp
M106 P1 S0
G92 E0
G1 E50 F200
M400
M104 S220
G92 E0
G1 E50 F200
M400
M106 P1 S255
G92 E0
G1 E5 F300
M109 S200 ; drop nozzle temp, make filament shink a bit
G92 E0
G1 E-0.5 F300

G1 X70 F9000
G1 X76 F15000
G1 X65 F15000
G1 X76 F15000
G1 X65 F15000; shake to put down garbage
G1 X80 F6000
G1 X95 F15000
G1 X80 F15000
G1 X165 F15000; wipe and shake
M400
M106 P1 S0
;===== prepare print temperature and material end =====


;===== wipe nozzle ===============================
M1002 gcode_claim_action : 14
M975 S1
M106 S255
G1 X65 Y230 F18000
G1 Y264 F6000
M109 S200
G1 X100 F18000 ; first wipe mouth

G0 X135 Y253 F20000  ; move to exposed steel surface edge
G28 Z P0 T300; home z with low precision,permit 300deg temperature
G29.2 S0 ; turn off ABL
G0 Z5 F20000

G1 X60 Y265
G92 E0
G1 E-0.5 F300 ; retrack more
G1 X100 F5000; second wipe mouth
G1 X70 F15000
G1 X100 F5000
G1 X70 F15000
G1 X100 F5000
G1 X70 F15000
G1 X100 F5000
G1 X70 F15000
G1 X90 F5000
G0 X128 Y261 Z-1.5 F20000  ; move to exposed steel surface and stop the nozzle
M104 S140 ; set temp down to heatbed acceptable
M106 S255 ; turn on fan (G28 has turn off fan)

M221 S; push soft endstop status
M221 Z0 ;turn off Z axis endstop
G0 Z0.5 F20000
G0 X125 Y259.5 Z-1.01
G0 X131 F211
G0 X124
G0 Z0.5 F20000
G0 X125 Y262.5
G0 Z-1.01
G0 X131 F211
G0 X124
G0 Z0.5 F20000
G0 X125 Y260.0
G0 Z-1.01
G0 X131 F211
G0 X124
G0 Z0.5 F20000
G0 X125 Y262.0
G0 Z-1.01
G0 X131 F211
G0 X124
G0 Z0.5 F20000
G0 X125 Y260.5
G0 Z-1.01
G0 X131 F211
G0 X124
G0 Z0.5 F20000
G0 X125 Y261.5
G0 Z-1.01
G0 X131 F211
G0 X124
G0 Z0.5 F20000
G0 X125 Y261.0
G0 Z-1.01
G0 X131 F211
G0 X124
G0 X128
G2 I0.5 J0 F300
G2 I0.5 J0 F300
G2 I0.5 J0 F300
G2 I0.5 J0 F300

M109 S140 ; wait nozzle temp down to heatbed acceptable
G2 I0.5 J0 F3000
G2 I0.5 J0 F3000
G2 I0.5 J0 F3000
G2 I0.5 J0 F3000

M221 R; pop softend status
G1 Z10 F1200
M400
G1 Z10
G1 F30000
G1 X230 Y15
G29.2 S1 ; turn on ABL
;G28 ; home again after hard wipe mouth
M106 S0 ; turn off fan , too noisy
;===== wipe nozzle end ================================


;===== bed leveling ==================================
M1002 judge_flag g29_before_print_flag
M622 J1

    M1002 gcode_claim_action : 1
    G29 A X101.628 Y119.902 I38.9895 J16.1955
    M400
    M500 ; save cali data

M623
;===== bed leveling end ================================

;===== home after wipe mouth============================
M1002 judge_flag g29_before_print_flag
M622 J0

    M1002 gcode_claim_action : 13
    G28

M623
;===== home after wipe mouth end =======================

M975 S1 ; turn on vibration supression


;=============turn on fans to prevent PLA jamming=================

    
    M106 P3 S180
    ;Prevent PLA from jamming

M106 P2 S100 ; turn on big fan ,to cool down toolhead


M104 S220 ; set extrude temp earlier, to reduce wait time

;===== mech mode fast check============================
G1 X128 Y128 Z10 F20000
M400 P200
M970.3 Q1 A7 B30 C80  H15 K0
M974 Q1 S2 P0

G1 X128 Y128 Z10 F20000
M400 P200
M970.3 Q0 A7 B30 C90 Q0 H15 K0
M974 Q0 S2 P0

M975 S1
G1 F30000
G1 X230 Y15
G28 X ; re-home XY
;===== fmech mode fast check============================


;===== nozzle load line ===============================
M975 S1
G90
M83
T1000
G1 X18.0 Y1.0 Z0.8 F18000;Move to start position
M109 S220
G1 Z0.2
G0 E2 F300
G0 X240 E15 F4800
G0 Y11 E0.700 F1200
G0 X239.5
G0 E0.2
G0 Y1.5 E0.700
G0 X18 E15 F4800
M400

;===== for Textured PEI Plate , lower the nozzle as the nozzle was touching topmost of the texture when homing ==


;========turn off light and wait extrude temperature =============
M1002 gcode_claim_action : 0
M106 S0 ; turn off fan
M106 P2 S0 ; turn off big fan
M106 P3 S0 ; turn off chamber fan

M975 S1 ; turn on mech mode supression
G21 ; set units to millimeters
G90 ; use absolute coordinates
M83 ; use relative distances for extrusion
; filament start gcode
M106 P3 S150





M900 K0




M107
;LAYER_CHANGE
;Z:0.2
;HEIGHT:0.2
G1 E-.8 F1800
G1 Z.6 F30000
M486 S0
G1 X125.928 Y124.415
G1 Z.2
G1 E.8 F1800
M204 S500
;TYPE:External perimeter
;WIDTH:0.5
G1 F3000
G1 X125.942 Y124.392 E.001
G1 X126.132 Y124.23 E.0093
G1 X126.3 Y124.146 E.007
G1 X126.575 Y124.09 E.01045
G1 X126.759 Y124.102 E.00687
G1 X126.985 Y124.189 E.00902
G1 X127.143 Y124.305 E.0073
G1 X127.318 Y124.523 E.01041
G1 X127.453 Y124.867 E.01376
G1 X127.698 Y125.123 E.0132
G1 X127.853 Y124.968 E.00816
G1 X127.957 Y124.777 E.0081
G1 X128.047 Y124.486 E.01135
G1 X128.285 Y124.276 E.01182
G1 X128.596 Y124.092 E.01346
G1 X128.958 Y124.141 E.01361
G1 X129.26 Y124.338 E.01343
G1 X129.417 Y124.635 E.01251
G1 X129.451 Y124.932 E.01113
G1 X129.416 Y125.251 E.01195
G1 X129.192 Y125.713 E.01912
G1 X128.761 Y126.478 E.0327
G1 X128.685 Y126.707 E.00899
G1 X128.722 Y126.859 E.00583
G1 X129.398 Y127.983 E.04885
G1 X129.552 Y128.325 E.01397
G1 X129.598 Y128.628 E.01141
G1 X129.561 Y128.923 E.01107
G1 X129.415 Y129.201 E.0117
G1 X129.168 Y129.396 E.01172
G1 X128.883 Y129.488 E.01115
G1 X128.594 Y129.488 E.01076
G1 X128.327 Y129.398 E.01049
G1 X128.12 Y129.219 E.01019
G1 X127.931 Y128.892 E.01407
G1 X127.843 Y128.562 E.01272
G1 X127.649 Y128.37 E.01017
G1 X127.173 Y129.132 E.03346
G1 X126.96 Y129.33 E.01083
G1 X126.637 Y129.452 E.01286
G1 X126.281 Y129.394 E.01343
G1 X125.998 Y129.157 E.01375
G1 X125.871 Y128.853 E.01227
G1 X125.846 Y128.657 E.00736
G1 X125.871 Y128.479 E.00669
G1 X126.063 Y127.909 E.0224
G1 X126.204 Y127.558 E.01409
G1 X126.381 Y127.206 E.01467
G1 X126.681 Y126.768 E.01977
G1 X126.455 Y126.415 E.01561
G1 X125.986 Y125.59 E.03535
G1 X125.883 Y125.381 E.00868
G1 X125.787 Y125.097 E.01117
G1 X125.769 Y124.776 E.01197
G1 X125.825 Y124.577 E.0077
G1 X125.896 Y124.465 E.00494
M204 S10000
;WIPE_START
G1 F24000
G1 X125.928 Y124.415 E-.00423
G1 X125.942 Y124.392 E-.00192
G1 X126.132 Y124.23 E-.01779
G1 X126.3 Y124.146 E-.01338
G1 X126.575 Y124.09 E-.02
G1 X126.759 Y124.102 E-.01314
G1 X126.985 Y124.189 E-.01725
G1 X127.143 Y124.305 E-.01397
G1 X127.318 Y124.523 E-.01992
G1 X127.453 Y124.867 E-.02633
G1 X127.698 Y125.123 E-.02525
G1 X127.853 Y124.968 E-.01562
G1 X127.957 Y124.777 E-.0155
G1 X128.047 Y124.486 E-.0217
G1 X128.285 Y124.276 E-.02261
G1 X128.596 Y124.092 E-.02575
G1 X128.958 Y124.141 E-.02603
G1 X129.26 Y124.338 E-.02569
G1 X129.417 Y124.635 E-.02394
G1 X129.451 Y124.932 E-.0213
G1 X129.416 Y125.251 E-.02287
G1 X129.192 Y125.713 E-.03658
G1 X128.761 Y126.478 E-.06256
G1 X128.685 Y126.707 E-.01719
G1 X128.722 Y126.859 E-.01115
G1 X129.398 Y127.983 E-.09345
G1 X129.552 Y128.325 E-.02672
G1 X129.598 Y128.628 E-.02184
G1 X129.561 Y128.923 E-.02118
G1 X129.415 Y129.201 E-.02237
G1 X129.168 Y129.396 E-.02242
G1 X128.883 Y129.488 E-.02134
G1 X128.594 Y129.488 E-.02059
G1 X128.327 Y129.398 E-.02008
G1 X128.238 Y129.321 E-.00834
;WIPE_END
G1 Z.6 F30000
G1 X123.148 Y129.127
G1 Z.2
G1 E.8 F1800
M204 S500
G1 F3000
G1 X123.045 Y128.882 E.0099
G1 X123.017 Y128.36 E.01947
G1 X123.036 Y128.138 E.0083
G1 X123.134 Y127.833 E.01193
G1 X123.249 Y127.638 E.00843
G1 X123.397 Y127.465 E.00848
G1 X123.903 Y127.095 E.02335
G1 X124.226 Y127.014 E.0124
G1 X124.516 Y127.01 E.0108
G1 X124.773 Y127.071 E.00984
G1 X125.004 Y127.191 E.0097
G1 X125.195 Y127.354 E.00935
G1 X125.354 Y127.551 E.00943
G1 X125.463 Y127.796 E.00999
G1 X125.518 Y128.312 E.01933
G1 X125.508 Y128.53 E.00813
G1 X125.46 Y128.741 E.00806
G1 X125.276 Y129.231 E.01949
G1 X125.098 Y129.442 E.01028
G1 X124.8 Y129.643 E.01339
G1 X124.551 Y129.731 E.00984
G1 X124.301 Y129.762 E.00938
G1 X124.051 Y129.747 E.00933
G1 X123.811 Y129.686 E.00922
G1 X123.572 Y129.576 E.0098
G1 X123.298 Y129.342 E.01342
G1 X123.182 Y129.176 E.00754
M204 S10000
;WIPE_START
G1 F24000
G1 X123.148 Y129.127 E-.00425
G1 X123.045 Y128.882 E-.01894
G1 X123.017 Y128.36 E-.03725
G1 X123.036 Y128.138 E-.01588
G1 X123.134 Y127.833 E-.02283
G1 X123.249 Y127.638 E-.01613
G1 X123.397 Y127.465 E-.01622
G1 X123.903 Y127.095 E-.04466
G1 X124.226 Y127.014 E-.02373
G1 X124.516 Y127.01 E-.02066
G1 X124.773 Y127.071 E-.01882
G1 X125.004 Y127.191 E-.01855
G1 X125.195 Y127.354 E-.01789
G1 X125.354 Y127.551 E-.01804
G1 X125.463 Y127.796 E-.01911
G1 X125.518 Y128.312 E-.03697
G1 X125.508 Y128.53 E-.01555
G1 X125.46 Y128.741 E-.01542
G1 X125.276 Y129.231 E-.03729
G1 X125.098 Y129.442 E-.01967
G1 X124.8 Y129.643 E-.02561
G1 X124.551 Y129.731 E-.01882
G1 X124.301 Y129.762 E-.01795
G1 X124.051 Y129.747 E-.01784
G1 X123.811 Y129.686 E-.01764
G1 X123.572 Y129.576 E-.01875
G1 X123.298 Y129.342 E-.02567
G1 X123.182 Y129.176 E-.01443
;WIPE_END
G1 E-.20543 F1800
G1 Z.6 F30000
G1 X118.318 Y123.013
G1 Z.2
G1 E.8 F1800
M204 S500
G1 F3000
G1 X118.319 Y123.012 E.00005
G1 X118.549 Y122.798 E.0117
G1 X118.885 Y122.669 E.01341
G1 X119.219 Y122.633 E.01251
G1 X120.851 Y122.67 E.0608
G1 X121.325 Y122.733 E.01781
G1 X121.825 Y122.863 E.01924
G1 X122.228 Y123.06 E.01671
G1 X122.431 Y123.205 E.00929
G1 X122.656 Y123.407 E.01126
G1 X122.957 Y123.782 E.01791
G1 X123.169 Y124.159 E.01611
G1 X123.321 Y124.543 E.01538
G1 X123.401 Y124.833 E.0112
G1 X123.499 Y125.457 E.02353
G1 X123.511 Y125.99 E.01986
G1 X123.47 Y126.379 E.01457
G1 X123.092 Y127.527 E.04502
G1 X122.975 Y127.778 E.01031
G1 X122.774 Y128.103 E.01423
G1 X122.559 Y128.359 E.01245
G1 X122.429 Y128.56 E.00892
G1 X122.243 Y128.765 E.01031
G1 X121.92 Y128.989 E.01464
G1 X121.459 Y129.162 E.01834
G1 X120.892 Y129.256 E.02141
G1 X120.353 Y129.284 E.0201
G1 X119.54 Y129.276 E.03028
G1 X119.088 Y129.318 E.01691
G1 X118.839 Y129.298 E.0093
G1 X118.649 Y129.226 E.00757
G1 X118.455 Y129.069 E.0093
G1 X118.317 Y128.843 E.00986
G1 X118.238 Y128.575 E.01041
G1 X118.211 Y128.273 E.01129
G1 X118.229 Y127.662 E.02277
G1 X118.235 Y124.083 E.1333
G1 X118.191 Y123.433 E.02427
G1 X118.214 Y123.254 E.00672
G1 X118.295 Y123.068 E.00756
M204 S10000
;WIPE_START
G1 F24000
G1 X118.318 Y123.013 E-.00425
G1 X118.319 Y123.012 E-.0001
G1 X118.549 Y122.798 E-.02238
G1 X118.885 Y122.669 E-.02564
G1 X119.219 Y122.633 E-.02394
G1 X120.851 Y122.67 E-.11631
G1 X121.325 Y122.733 E-.03407
G1 X121.825 Y122.863 E-.03681
G1 X122.228 Y123.06 E-.03196
G1 X122.431 Y123.205 E-.01777
G1 X122.656 Y123.407 E-.02154
G1 X122.957 Y123.782 E-.03426
G1 X123.169 Y124.159 E-.03082
G1 X123.321 Y124.543 E-.02943
G1 X123.401 Y124.833 E-.02143
G1 X123.499 Y125.457 E-.045
G1 X123.511 Y125.99 E-.03799
G1 X123.47 Y126.379 E-.02787
G1 X123.092 Y127.527 E-.08611
G1 X122.975 Y127.778 E-.01973
G1 X122.774 Y128.103 E-.02723
G1 X122.559 Y128.359 E-.02382
G1 X122.429 Y128.56 E-.01706
G1 X122.243 Y128.765 E-.01972
G1 X121.92 Y128.989 E-.02801
G1 X121.7 Y129.072 E-.01675
;WIPE_END
G1 Z.6 F30000
G1 X117.339 Y125.484
G1 Z.2
G1 E.8 F1800
M204 S500
;TYPE:Perimeter
G1 F3000
G1 X117.708 Y124.913 E.02532
G1 X117.777 Y124.458 E.01714
G1 X117.774 Y126.068 E.05997
G1 X117.539 Y125.714 E.01583
G1 X117.379 Y125.529 E.00911
M204 S10000
;WIPE_START
G1 F24000
G1 X117.339 Y125.484 E-.00429
G1 X117.708 Y124.913 E-.04844
G1 X117.777 Y124.458 E-.03279
G1 X117.774 Y126.068 E-.11471
G1 X117.539 Y125.714 E-.03027
G1 X117.379 Y125.529 E-.01743
;WIPE_END
G1 E-.55207 F1800
G1 Z.6 F30000
G1 X133.622 Y129.515
G1 Z.2
G1 E.8 F1800
M204 S500
G1 F3000
G1 X133.867 Y129.866 E.01594
G1 X134.249 Y130.186 E.01856
G1 X134.722 Y130.372 E.01893
G1 X135.111 Y130.42 E.0146
G1 X135.209 Y130.415 E.00365
G1 X134.479 Y130.883 E.0323
G1 X133.969 Y131.172 E.02183
G1 X133.139 Y131.581 E.03446
G1 X132.608 Y131.8 E.02139
G1 X132.834 Y131.439 E.01586
G1 X133.008 Y131.085 E.01469
G1 X133.6 Y129.571 E.06055
M204 S10000
;WIPE_START
G1 F24000
G1 X133.622 Y129.515 E-.00429
G1 X133.867 Y129.866 E-.0305
G1 X134.249 Y130.186 E-.03551
G1 X134.722 Y130.372 E-.03621
G1 X135.111 Y130.42 E-.02793
G1 X135.209 Y130.415 E-.00699
G1 X134.479 Y130.883 E-.06178
G1 X133.969 Y131.172 E-.04177
G1 X133.139 Y131.581 E-.06593
G1 X132.608 Y131.8 E-.04093
G1 X132.834 Y131.439 E-.03035
G1 X133.008 Y131.085 E-.0281
G1 X133.6 Y129.571 E-.11583
;WIPE_END
G1 E-.27388 F1800
G1 Z.6 F30000
G1 X103.094 Y131.242
G1 Z.2
G1 E.8 F1800
M204 S500
G1 F3000
G1 X103.004 Y131.132 E.00529
G1 X102.974 Y131.057 E.00301
G1 X102.942 Y130.821 E.00887
G1 X102.94 Y129.732 E.04056
G1 X103.488 Y130.046 E.02352
G1 X104.155 Y130.27 E.02621
G1 X104.586 Y130.343 E.01628
G1 X105.136 Y130.372 E.02051
G1 X105.664 Y130.338 E.01971
G1 X106.156 Y130.242 E.01867
G1 X106.63 Y130.073 E.01874
G1 X107.064 Y129.831 E.01851
G1 X107.465 Y129.506 E.01923
G1 X107.871 Y128.999 E.02419
G1 X108.21 Y128.236 E.0311
G1 X108.136 Y127.516 E.02696
G1 X107.844 Y126.951 E.02369
G1 X107.431 Y126.569 E.02095
G1 X106.949 Y126.325 E.02012
G1 X106.426 Y126.218 E.01988
G1 X105.881 Y126.255 E.02035
G1 X105.381 Y126.453 E.02003
G1 X105.028 Y126.735 E.01683
G1 X104.993 Y126.727 E.00134
G1 X104.935 Y126.568 E.0063
G1 X104.901 Y126.384 E.00697
G1 X104.878 Y126.055 E.01228
G1 X104.886 Y125.693 E.01349
G1 X104.914 Y125.463 E.00863
G1 X104.994 Y125.21 E.00988
G1 X105.55 Y125.532 E.02393
G1 X105.935 Y125.662 E.01514
G1 X106.48 Y125.733 E.02047
G1 X107.217 Y125.516 E.02862
G1 X107.595 Y125.166 E.01919
G1 X107.695 Y125.227 E.00436
G1 X108.236 Y125.35 E.02066
G1 X108.469 Y125.332 E.0087
G1 X108.485 Y127.878 E.09483
G1 X108.438 Y128.669 E.02951
G1 X108.556 Y129.18 E.01953
G1 X108.834 Y129.653 E.02043
G1 X109.406 Y130.076 E.0265
G1 X110.147 Y130.245 E.02831
G1 X110.855 Y130.145 E.02663
G1 X111.376 Y129.853 E.02225
G1 X111.763 Y129.416 E.02174
G1 X111.973 Y128.931 E.01969
G1 X112.059 Y128.433 E.01882
G1 X112.04 Y127.565 E.03234
G1 X112.039 Y125.317 E.08373
G1 X112.577 Y125.234 E.02028
G1 X113.09 Y125.049 E.02031
G1 X113.193 Y125.135 E.005
G1 X113.097 Y125.466 E.01284
G1 X113.074 Y126.019 E.02061
G1 X113.271 Y126.62 E.02356
G1 X112.938 Y126.829 E.01464
G1 X112.635 Y127.206 E.01801
G1 X112.442 Y127.641 E.01773
G1 X112.374 Y128.282 E.02401
G1 X112.498 Y128.859 E.02198
G1 X112.798 Y129.411 E.0234
G1 X113.212 Y129.808 E.02136
G1 X113.616 Y130.049 E.01752
G1 X114.083 Y130.224 E.01858
G1 X114.519 Y130.321 E.01664
G1 X114.878 Y130.362 E.01346
G1 X115.442 Y130.369 E.02101
G1 X116.066 Y130.293 E.02341
